src/resources/assets/clipboard.svg

<svg xmlns="http://www.w3.org/2000/svg" width="16" height="16"><path d="M 5.085938 2 C 5.292969 1.417969 5.847656 1 6.5 1 L 9.5 1 C 10.152344 1 10.707031 1.417969 10.914062 2 L 11.5 2 C 12.328125 2 13 2.671875 13 3.5 L 13 13.5 C 13 14.328125 12.328125 15 11.5 15 L 4.5 15 C 3.671875 15 3 14.328125 3 13.5 L 3 3.5 C 3 2.671875 3.671875 2 4.5 2 Z M 6.5 2 C 6.222656 2 6 2.222656 6 2.5 C 6 2.777344 6.222656 3 6.5 3 L 9.5 3 C 9.777344 3 10 2.777344 10 2.5 C 10 2.222656 9.777344 2 9.5 2 Z M 5.085938 3 L 4.5 3 C 4.222656 3 4 3.222656 4 3.5 L 4 13.5 C 4 13.777344 4.222656 14 4.5 14 L 11.5 14 C 11.777344 14 12 13.777344 12 13.5 L 12 3.5 C 12 3.222656 11.777344 3 11.5 3 L 10.914062 3 C 10.707031 3.582031 10.152344 4 9.5 4 L 6.5 4 C 5.847656 4 5.292969 3.582031 5.085938 3 Z M 5.085938 3" fill="#ddd"/></svg>

<svg xmlns="http://www.w3.org/2000/svg" width="16" height="16"><path d="M5.086 2c.207-.582.762-1 1.414-1h3c.652 0 1.207.418 1.414 1h.586A1.5 1.5 0 0113 3.5v10a1.5 1.5 0 01-1.5 1.5h-7A1.5 1.5 0 013 13.5v-10A1.5 1.5 0 014.5 2zM6.5 2c-.277 0-.5.223-.5.5s.223.5.5.5h3c.277 0 .5-.223.5-.5S9.777 2 9.5 2zM5.086 3H4.5c-.277 0-.5.223-.5.5v10c0 .277.223.5.5.5h7c.277 0 .5-.223.5-.5v-10c0-.277-.223-.5-.5-.5h-.586c-.207.582-.762 1-1.414 1h-3a1.502 1.502 0 01-1.414-1zm0 0" fill="#ddd"/></svg>
